app/img/icons/check-green.svg

<svg width="14" height="15" viewBox="0 0 14 15" fill="none" xmlns="http://www.w3.org/2000/svg">
<path d="M7 0C3.13438 0 0 3.35826 0 7.5C0 11.6417 3.13438 15 7 15C10.8656 15 14 11.6417 14 7.5C14 3.35826 10.8656 0 7 0ZM10.0234 5.05078L6.73281 9.93917C6.68682 10.008 6.62619 10.064 6.55595 10.1027C6.48571 10.1413 6.40787 10.1615 6.32891 10.1615C6.24994 10.1615 6.17211 10.1413 6.10186 10.1027C6.03162 10.064 5.97099 10.008 5.925 9.93917L3.97656 7.04632C3.91719 6.95759 3.97656 6.83371 4.07812 6.83371H4.81094C4.97031 6.83371 5.12187 6.91574 5.21562 7.05636L6.32812 8.71038L8.78438 5.06083C8.87813 4.92187 9.02812 4.83817 9.18906 4.83817H9.92188C10.0234 4.83817 10.0828 4.96205 10.0234 5.05078Z" fill="#39B54A"/>
</svg>

<svg width="14" height="15" fill="none" xmlns="http://www.w3.org/2000/svg"><path d="M7 0C3.134 0 0 3.358 0 7.5 0 11.642 3.134 15 7 15s7-3.358 7-7.5C14 3.358 10.866 0 7 0zm3.023 5.05l-3.29 4.89a.508.508 0 01-.177.163.471.471 0 01-.454 0 .508.508 0 01-.177-.164L3.977 7.046c-.06-.088 0-.212.101-.212h.733c.16 0 .31.082.405.222L6.328 8.71l2.456-3.65a.49.49 0 01.405-.222h.733c.101 0 .16.124.101.213z" fill="#39B54A"/></svg>
